X:227
T:Steirische Jodler und Taenze Nr. 1 - 48 (25.)
C:traditionell
A:Salzkammergut
S:MIDI erhalten von Christian Amon. Nach einer kopie im besitz von Johann Stoeckl eines manuscriptes. Stoeckl(zitiert von Amon): "diese sammlung wurde 1935 im hause der familie Hohenlohe-Schillingfuerst gefunden. Sie wurde von einem der beiden brueder Steinegger 1866 verfasst. Die originale sind im Ausseer Kammerhofmuseum".
M:3/4
L:1/8
K:G
V:1
G3 F G2 | A3 f d2 | A3 f d2 | B3 g d2 |\
G3 F G2 | A3 f d2 | A3 f dF | G4 z2 |*
V:2
B3 A B2 | c3 a f2 | c3 a f2 | d3 b g2 |\
B3 A B2 | c3 a f2 | c3 a f[dA] | B4 z2 |*
